X: 4
T: The Rambler
R: jig
M: 6/8
L: 1/8
K: Amaj
C/E/ | FEC E2A | FEC E2 c/e/ | fec ABc | BAF AFD |FEC E2A | FEC E2 c/e/ | fec ABc | BAA A2 :|c/d/ | ece Ace | afa faf | ece fec | BcB Bcd |ece Ace | afa faf | ece fec | ABA A2 :|


Tune 510	Setting 13435

